!!!COM: Stadler, Maximilian
!!!CDT: 1748///-1833///
!!!COA: Haydn, Joseph
!!!OTL@@IT: Gioco filarmonico
!!!OTL@EN: Philharmonic Joke
!!!OTA@@IT: o sia maniera facile per comporre un infinito numero de minuetti e trio anche senza sapere il contrapunto
!!!OTA@EN: or the Art of Composing an Infinite Number of Minutes Without the Least Knowledge of Counterpoint
!!!PDT: 1781///
!!!PPR: Artaria
!!!SML: Gesellschaft der Musikfreundes, Vienna
!!!PPR2: Luigi Marescalchi
!!!PPP2: Napoli
!!!PDT2: 1790///
**kern	**kern	**kern
*Icello	*Ivioln	*Ivioln
*>[A,A,B,B,A]	*>[A,A,B,B,A]	*>[A,A,B,B,A]
*>norep[A,B]	*>norep[A,B]	*>norep[A,B]
*>A	*>A	*>A
*k[]	*k[]	*k[]
*M3/4	*M3/4	*M3/4
*MM120	*MM120	*MM120
!!section:  I
!!measure:  A
!!diceroll: 6
=148	=148	=148
4c	4e	4cc
4G	4f	16dd
.	.	16cc
.	.	16dd
.	.	16ee
4c	4e	4cc
!!section:  I
!!measure:  B
!!diceroll: 5
=17	=17	=17
4r	4r	16cc#
.	.	8.dd
4F	2g	16gg
.	.	8.b
4E	.	16cc#
.	.	8.g
!!section:  I
!!measure:  C
!!diceroll: 5
=113	=113	=113
4BB	4G	16dd
.	.	16ee
.	.	16ff
.	.	16dd
4C	4G	8ee
.	.	8gg
4r	4r	16ff
.	.	16ee
.	.	16dd
.	.	16cc
!!section:  I
!!measure:  D
!!diceroll: 6
=45	=45	=45
4GG	16g	16b
.	16b	16dd
.	16a	16cc
.	16g	16b
4D	16b	16dd
.	16a	16cc
.	16g	16b
.	16f#	16a
4G	4g	4b
!!section:  I
!!measure:  E
!!diceroll: 5
=161	=161	=161
4A	4f#	12cc
.	.	12b
.	.	12cc
4F#	4A	12aa
.	.	12ff#
.	.	12dd
4D	4d	12aa
.	.	12ff#
.	.	12dd
!!section:  I
!!measure:  F
!!diceroll: 6
=97	=97	=97
4BB	4d	16r
.	.	16d
.	.	16e
.	.	16f#
4r	4r	16g
.	.	16a
.	.	16b
.	.	16cc
4r	4r	16dd
.	.	16ee
.	.	16ff#
.	.	16gg
!!section:  I
!!measure:  G
!!diceroll: 8
=21	=21	=21
4D	8a	8a
.	8cc	8ee
4E	8b	8dd
.	8a	8cc
4DD	8g	8b
.	8f#	8a
!!section:  I
!!measure:  H
!!diceroll: 7
=91	=91	=91
8GG	2.g	2.g
8G	.	.
8D	.	.
8BB	.	.
4GG	.	.
*>B	*>B	*>B
!!section:  II
!!measure:  A
!!diceroll: 8
=16	=16	=16
4C#	12c#	2a
.	12e	.
.	12a	.
4C#	12c#	.
.	12e	.
.	12a	.
4C#	12c#	16aa
.	.	16gg
.	12e	.
.	.	16ff
.	12a	.
.	.	16ee
!!section:  II
!!measure:  B
!!diceroll: 3
=39	=39	=39
8D	8f	8aa
8r	8r	8r
8E	8g	8cc#
8r	8r	8r
8F	8a	8dd
!!section:  II
!!measure:  C
!!diceroll: 9
=48	=48	=48
12GG	4d	4f
12D	.	.
12G	.	.
12BB	4dd	4ff
12D	.	.
12G	.	.
12GG	4b	4dd
12D	.	.
12G	.	.
!!section:  II
!!measure:  D
!!diceroll: 4
=132	=132	=132
4C	16cc	16cc
.	16e	16g
.	16f	16a
.	16g	16b
4r	16a	16cc
.	16b	16dd
.	16cc	16ee
.	16dd	16ff
4r	4ee	4gg
!!section:  II
!!measure:  E
!!diceroll: 10
=137	=137	=137
2.F	4r	8r
.	.	8a
.	4A	8cc#
.	.	8dd
.	4d	8ff
.	.	8aa
!!section:  II
!!measure:  F
!!diceroll: 8
=168	=168	=168
4E	4c	8gg
.	.	8g
4D	4B	8ff
.	.	8f
4C	4c	4e
!!section:  II
!!measure:  G
!!diceroll: 8
=89	=89	=89
2F	2A	8r
.	.	8cc#
.	.	8dd
.	.	8ff
4G	4G	8b
.	.	8dd
!!section:  II
!!measure:  H
!!diceroll: 5
=170	=170	=170
4C	2.cc	2.cc
4G	.	.
4c	.	.
*-	*-	*-
!!!END: 2004/11/01/
